;Generated by Cura LulzBot Edition GCodeWriter Version: 2.6.69
;FLAVOR:RepRap
;TIME:5883
;Filament used: 2.60263m
;Layer height: 0.25
;Generated with Cura_SteamEngine 2.6.69
;This G-Code has been generated specifically for the LulzBot TAZ 6 with standard extruder
G26 ; clear potential 'probe fail' condition
G21 ; set units to Millimetres
M107 ; disable fans
G90 ; absolute positioning
M82 ; set extruder to absolute mode
G92 E0 ; set extruder position to 0
M140 S105 ; start bed heating up
G28 XY ; home X and Y
G1 X-19 Y258 F1000 ; move to safe homing position
M109 R170 ; soften filament before homing Z
G28 Z ; home Z
G1 E-30 F100 ; retract filament
M109 R170 ; wait for extruder to reach wiping temp
G1 X-15 Y100 F3000 ; move above wiper pad
G1 Z1 ; push nozzle into wiper
G1 X-17 Y95 F1000 ; slow wipe
G1 X-17 Y90 F1000 ; slow wipe
G1 X-17 Y85 F1000 ; slow wipe
G1 X-15 Y90 F1000 ; slow wipe
G1 X-17 Y80 F1000 ; slow wipe
G1 X-15 Y95 F1000 ; slow wipe
G1 X-17 Y75 F2000 ; fast wipe
G1 X-15 Y65 F2000 ; fast wipe
G1 X-17 Y70 F2000 ; fast wipe
G1 X-15 Y60 F2000 ; fast wipe
G1 X-17 Y55 F2000 ; fast wipe
G1 X-15 Y50 F2000 ; fast wipe
G1 X-17 Y40 F2000 ; fast wipe
G1 X-15 Y45 F2000 ; fast wipe
G1 X-17 Y35 F2000 ; fast wipe
G1 X-15 Y40 F2000 ; fast wipe
G1 X-17 Y70 F2000 ; fast wipe
G1 X-15 Y30 Z2 F2000 ; fast wipe
G1 X-17 Y35 F2000 ; fast wipe
G1 X-15 Y25 F2000 ; fast wipe
G1 X-17 Y30 F2000 ; fast wipe
G1 X-15 Y25 Z1.5 F1000 ; slow wipe
G1 X-17 Y23 F1000 ; slow wipe
G1 Z10 ; raise extruder
M109 R170 ; wait for extruder to reach probe temp
G1 X-9 Y-9 ; move above first probe point
M204 S100 ; set probing acceleration
G29 ; start auto-leveling sequence
M204 S500 ; restore standard acceleration
G1 X0 Y0 Z15 F5000 ; move up off last probe point
G4 S1 ; pause
M400 ; wait for moves to finish
M117 Heating... ; progress indicator message on LCD
M109 R240 ; wait for extruder to reach printing temp
M190 S105 ; wait for bed to reach printing temp
G1 Z2 E0 F75 ; prime tiny bit of filament into the nozzle
M117 TAZ 6 Printing... ; progress indicator message on LCD

M221 S100
;LAYER_COUNT:31
;LAYER:0
M107
G0 F1750 X89.202 Y139.295 Z0.4
;TYPE:SKIRT
G1 F600 X89.729 Y138.983 E0.01824
G1 X91.42 Y138.19 E0.07387
G1 X91.927 Y138.002 E0.08997
G1 X93.52 Y137.558 E0.13923
G1 X94.059 Y137.456 E0.15556
G1 X95.637 Y137.293 E0.20281
G1 X95.972 Y137.276 E0.2128
G1 X127.856 Y137.285 E1.16242
G1 X127.901 Y137.285 E1.16376
G1 X133.483 Y137.364 E1.33002
G1 X136.474 Y137.276 E1.41914
G1 X136.571 Y137.275 E1.42203
G1 X188.105 Y137.287 E2.95689
G1 X188.468 Y137.307 E2.96772
G1 X189.676 Y137.443 E3.00392
G1 X190.063 Y137.511 E3.01563
G1 X191.212 Y137.784 E3.0508
G1 X191.579 Y137.895 E3.06222
G1 X192.673 Y138.296 E3.09692
G1 X193.025 Y138.448 E3.10834
G1 X194.082 Y138.984 E3.14364
G1 X194.413 Y139.178 E3.15507
G1 X195.383 Y139.824 E3.18978
G1 X195.691 Y140.057 E3.20128
G1 X196.597 Y140.83 E3.23675
G1 X196.876 Y141.098 E3.24827
G1 X197.667 Y141.955 E3.28301
G1 X197.909 Y142.25 E3.29437
G1 X198.602 Y143.205 E3.32951
G1 X198.809 Y143.529 E3.34096
G1 X199.382 Y144.555 E3.37596
G1 X199.551 Y144.905 E3.38754
G1 X199.995 Y145.986 E3.42235
G1 X200.119 Y146.348 E3.43374
G1 X200.439 Y147.495 E3.46921
G1 X200.521 Y147.875 E3.48079
G1 X200.698 Y149.029 E3.51556
G1 X200.734 Y149.409 E3.52693
G1 X200.775 Y150.588 E3.56206
G1 X200.765 Y150.975 E3.57359
G1 X200.665 Y152.157 E3.60892
G1 X200.624 Y152.466 E3.61821
G1 X199.456 Y158.864 E3.81191
G1 X198.789 Y164.304 E3.97514
G1 X198.431 Y169.759 E4.13796
G1 X198.382 Y175.24 E4.30121
G1 X198.641 Y180.684 E4.46354
G1 X199.524 Y188.618 E4.7013
G1 X199.543 Y188.902 E4.70977
G1 X199.571 Y190.113 E4.74585
G1 X199.557 Y190.504 E4.7575
G1 X199.442 Y191.681 E4.79273
G1 X199.368 Y192.12 E4.80598
G1 X198.989 Y193.706 E4.85455
G1 X198.845 Y194.16 E4.86874
G1 X198.409 Y195.248 E4.90365
G1 X198.246 Y195.594 E4.91504
G1 X197.682 Y196.629 E4.95014
G1 X197.477 Y196.956 E4.96164
G1 X196.797 Y197.913 E4.9966
G1 X196.556 Y198.214 E5.00809
G1 X195.761 Y199.091 E5.04334
G1 X195.488 Y199.359 E5.05474
G1 X194.612 Y200.122 E5.08934
G1 X194.201 Y200.426 E5.10456
G1 X192.612 Y201.42 E5.16038
G1 X192.178 Y201.648 E5.17498
G1 X191.093 Y202.117 E5.21019
G1 X190.674 Y202.265 E5.22342
G1 X189.078 Y202.709 E5.27276
G1 X188.605 Y202.803 E5.28713
G1 X187.447 Y202.946 E5.32188
G1 X187.051 Y202.971 E5.3337
G1 X155.014 Y202.993 E6.28787
G1 X154.916 Y202.992 E6.29078
G1 X151.947 Y202.904 E6.37925
G1 X145.468 Y203.003 E6.57224
G1 X145.417 Y203.003 E6.57376
G1 X94.72 Y202.989 E8.08369
G1 X94.438 Y202.977 E8.09209
G1 X93.444 Y202.89 E8.12181
G1 X93.122 Y202.845 E8.13149
G1 X91.982 Y202.629 E8.16605
G1 X91.61 Y202.536 E8.17747
G1 X90.496 Y202.185 E8.21226
G1 X90.137 Y202.048 E8.2237
G1 X89.053 Y201.559 E8.25912
G1 X88.712 Y201.38 E8.27059
G1 X87.719 Y200.782 E8.30512
G1 X87.401 Y200.564 E8.3166
G1 X86.461 Y199.833 E8.35206
G1 X86.173 Y199.58 E8.36348
G1 X85.345 Y198.763 E8.39813
G1 X85.088 Y198.477 E8.40958
G1 X84.353 Y197.556 E8.44467
G1 X84.129 Y197.238 E8.45626
G1 X83.507 Y196.232 E8.49148
G1 X83.328 Y195.902 E8.50266
G1 X82.844 Y194.869 E8.53664
G1 X82.7 Y194.506 E8.54827
G1 X82.319 Y193.348 E8.58458
G1 X82.22 Y192.973 E8.59613
G1 X81.993 Y191.844 E8.63043
G1 X81.939 Y191.461 E8.64195
G1 X81.844 Y190.269 E8.67756
G1 X81.836 Y189.891 E8.68882
G1 X81.879 Y188.731 E8.7234
G1 X81.931 Y188.261 E8.73748
G1 X82.701 Y184.092 E8.86375
G1 X83.526 Y178.627 E9.02836
G1 X84.035 Y173.183 E9.19121
G1 X84.236 Y167.705 E9.35447
G1 X84.128 Y162.257 E9.51676
G1 X83.706 Y156.746 E9.68138
G1 X83.045 Y151.187 E9.84811
G1 X83.023 Y150.723 E9.86194
G1 X83.052 Y149.544 E9.89707
G1 X83.084 Y149.161 E9.90852
G1 X83.253 Y147.987 E9.94384
G1 X83.37 Y147.474 E9.95951
G1 X83.952 Y145.626 E10.01722
G1 X84.133 Y145.173 E10.03175
G1 X84.619 Y144.18 E10.06467
G1 X84.804 Y143.852 E10.07589
G1 X85.461 Y142.83 E10.11208
G1 X85.692 Y142.514 E10.12373
G1 X86.435 Y141.617 E10.15842
G1 X86.694 Y141.339 E10.16974
G1 X87.524 Y140.547 E10.20391
G1 X87.861 Y140.267 E10.21696
G1 X89.202 Y139.295 E10.26629
G1 F600 E9.26629
G0 F1750 X90.546 Y141.492
G0 X90.587 Y141.56
G0 X94.79 Y148.429
G0 X94.831 Y148.497
G0 X94.819 Y148.476
;TYPE:SUPPORT
G1 F600 E10.26629
G1 X95.387 Y148.318 E10.28385
G1 X95.951 Y148.321 E10.30064
G1 X95.955 Y148.325 E10.30081
G1 X96.526 Y148.473 E10.31838
G1 X97.031 Y148.78 E10.33598
G1 X97.443 Y149.219 E10.35391
G1 X97.691 Y149.738 E10.37105
G1 X97.709 Y149.75 E10.37169
G1 X97.824 Y150.295 E10.38828
G1 X97.786 Y150.875 E10.40559
G1 X97.77 Y150.889 E10.40622
G1 X97.593 Y151.436 E10.42335
G1 X97.567 Y151.449 E10.42421
G1 X97.269 Y151.917 E10.44074
G1 X97.26 Y151.919 E10.44101
G1 X96.793 Y152.301 E10.45898
G1 X96.254 Y152.514 E10.47624
G1 X96.236 Y152.537 E10.47711
G1 X95.667 Y152.605 E10.49418
G1 X95.662 Y152.609 E10.49437
G1 X95.081 Y152.529 E10.51184
G1 X94.53 Y152.29 E10.52973
G1 X94.502 Y152.293 E10.53056
G1 X94.149 Y151.963 E10.54496
G1 X94.099 Y151.946 E10.54653
G1 X93.778 Y151.446 E10.56423
G1 X93.762 Y151.439 E10.56475
G1 X93.567 Y150.889 E10.58213
G1 X93.524 Y150.312 E10.59936
G1 X93.636 Y149.757 E10.61622
G1 X93.655 Y149.744 E10.61691
G1 X93.911 Y149.211 E10.63452
G1 X94.308 Y148.784 E10.65188
G1 X94.819 Y148.476 E10.66965
G0 F1750 X94.962 Y148.644
G1 F600 X94.962 Y152.259 E10.77732
G0 F1750 X94.117 Y151.606
G1 F600 X97.228 Y151.606 E10.86998
G0 F1750 X96.628 Y152.152
G1 F600 X96.628 Y148.769 E10.97073
G0 F1750 X97.544 Y149.94
G1 F600 X93.803 Y149.94 E11.08215
G1 F600 E10.08215
G0 F1750 X97.44 Y149.344
G0 X97.519 Y149.331
G0 X117.386 Y146.079
G0 X116.474 Y145.099
G0 X123.442 Y145.112
G0 X123.507 Y145.077
G0 X131.082 Y143.838
G0 X131.161 Y143.825
G0 X131.364 Y143.792
G0 X131.364 Y144.207
G1 F600 E11.08215
G1 X131.533 Y143.696 E11.09818
G1 X132.62 Y143.697 E11.13056
G1 X132.881 Y144.207 E11.14762
G1 X131.364 Y144.207 E11.1928
G1 F600 E10.1928
G0 F1750 X131.364 Y143.792
G0 X128.248 Y140.06
G0 X127.699 Y139.857
G0 X95.53 Y139.87
G0 X94.309 Y140.017
G0 X93.076 Y140.317
G0 X91.898 Y140.757
G0 X90.785 Y141.333
G0 X89.739 Y142.04
G0 X88.788 Y142.867
G0 X87.955 Y143.775
G0 X87.213 Y144.818
G0 X86.609 Y145.92
G0 X86.139 Y147.082
G0 X85.811 Y148.303
G0 X85.63 Y149.523
G0 X85.594 Y150.79
G0 X85.709 Y152.046
G0 X85.973 Y153.284
G0 X86.371 Y154.458
G0 X86.92 Y155.6
G0 X87.589 Y156.657
G0 X88.398 Y157.647
G0 X89.295 Y158.511
G0 X90.299 Y159.273
G0 X91.366 Y159.902
G0 X92.536 Y160.413
G0 X93.726 Y160.775
G0 X94.961 Y160.993
G0 X96.183 Y161.064
G0 X127.696 Y161.057
G0 X128.082 Y160.955
G0 X128.505 Y160.595
G0 X131.33 Y157.122
G0 X131.33 Y156.707
G1 F600 E11.1928
G1 X132.873 Y156.707 E11.23876
G1 X132.579 Y157.219 E11.25634
G1 X131.618 Y157.219 E11.28496
G1 X131.33 Y156.707 E11.30246
G1 F600 E10.30246
G0 F1750 X131.33 Y157.122
G0 X150.023 Y183.049
G1 F600 E11.30246
G1 X150.99 Y183.05 E11.33126
G1 X151.271 Y183.56 E11.3486
G1 X149.73 Y183.56 E11.3945
G1 X150.023 Y183.049 E11.41204
G0 F1750 X150.134 Y183.26
G1 F600 X150.879 Y183.26 E11.43423
G1 F600 E10.43423
G0 F1750 X150.879 Y183.145
G0 X146.49 Y179.313
G0 X146.047 Y179.204
G0 X94.989 Y179.202
G0 X93.714 Y179.281
G0 X92.479 Y179.507
G0 X91.292 Y179.872
G0 X90.126 Y180.391
G0 X89.062 Y181.023
G0 X88.061 Y181.79
G0 X87.167 Y182.659
G0 X86.367 Y183.655
G0 X85.702 Y184.714
G0 X85.161 Y185.861
G0 X84.766 Y187.035
G0 X84.509 Y188.279
G0 X84.402 Y189.53
G0 X84.444 Y190.797
G0 X84.629 Y192.019
G0 X84.965 Y193.236
G0 X85.439 Y194.395
G0 X86.048 Y195.495
G0 X86.799 Y196.532
G0 X87.632 Y197.438
G0 X88.59 Y198.26
G0 X89.637 Y198.961
G0 X90.756 Y199.532
G0 X91.935 Y199.964
G0 X93.169 Y200.258
G0 X94.999 Y200.417
G0 X146.1 Y200.41
G0 X146.487 Y200.308
G0 X151.241 Y196.475
G0 X151.241 Y196.06
G1 F600 E11.43423
G1 X151.071 Y196.571 E11.45027
G1 X149.983 Y196.57 E11.48267
G1 X149.722 Y196.06 E11.49974
G1 X151.241 Y196.06 E11.54498
G1 F600 E10.54498
G0 F1750 X151.241 Y196.475
G0 X154.359 Y200.206
G0 X154.692 Y200.374
G0 X154.987 Y200.417
G0 X187.073 Y200.397
G0 X188.293 Y200.251
G0 X189.527 Y199.95
G0 X190.705 Y199.51
G0 X191.818 Y198.934
G0 X192.865 Y198.227
G0 X193.815 Y197.4
G0 X194.648 Y196.492
G0 X195.39 Y195.449
G0 X195.987 Y194.364
G0 X196.464 Y193.185
G0 X196.792 Y191.964
G0 X196.973 Y190.744
G0 X197.009 Y189.477
G0 X196.894 Y188.222
G0 X196.63 Y186.983
G0 X196.232 Y185.809
G0 X195.681 Y184.663
G0 X195.018 Y183.614
G0 X179.61 Y161.056
G0 X179.66 Y160.993
G0 X186.725 Y152.172
G0 X186.775 Y152.11
G0 X186.759 Y152.132
G1 F600 E11.54498
G1 X186.356 Y151.692 E11.56275
G1 X186.083 Y151.16 E11.58056
G1 X186.075 Y151.155 E11.58084
G1 X186.016 Y150.631 E11.59654
G1 X185.96 Y150.568 E11.59906
G1 X186.045 Y150.065 E11.61425
G1 X186.018 Y150.009 E11.6161
G1 X186.217 Y149.447 E11.63386
G1 X186.213 Y149.428 E11.63444
G1 X186.537 Y149.009 E11.65021
G1 X186.539 Y148.997 E11.65057
G1 X186.542 Y148.996 E11.65067
G1 X187.022 Y148.602 E11.66916
G1 X187.035 Y148.57 E11.67019
G1 X187.483 Y148.42 E11.68426
G1 X187.523 Y148.38 E11.68595
G1 X188.101 Y148.306 E11.7033
G1 X188.114 Y148.316 E11.70379
G1 X188.708 Y148.381 E11.72159
G1 X189.261 Y148.618 E11.73951
G1 X189.705 Y148.988 E11.75672
G1 X189.706 Y148.988 E11.75675
G1 X190.025 Y149.441 E11.77325
G1 X190.225 Y150.043 E11.79214
G1 X190.232 Y150.049 E11.79242
G1 X190.27 Y150.626 E11.80964
G1 X190.158 Y151.162 E11.82595
G1 X190.143 Y151.172 E11.82649
G1 X189.896 Y151.687 E11.8435
G1 X189.479 Y152.139 E11.86181
G1 X188.974 Y152.433 E11.87922
G1 X188.97 Y152.44 E11.87946
G1 X188.408 Y152.583 E11.89673
G1 X188.404 Y152.587 E11.8969
G1 X187.847 Y152.596 E11.91349
G1 X187.836 Y152.585 E11.91395
G1 X187.278 Y152.44 E11.93112
G1 X187.276 Y152.437 E11.93123
G1 X186.759 Y152.132 E11.94911
G0 F1750 X186.592 Y151.653
G1 F600 X186.592 Y149.265 E12.02023
G0 F1750 X186.255 Y149.94
G1 F600 X189.981 Y149.94 E12.1312
G0 F1750 X189.924 Y149.772
G1 F600 X189.924 Y151.165 E12.17269
G0 F1750 X189.698 Y151.606
G1 F600 X186.548 Y151.606 E12.26651
G0 F1750 X188.258 Y152.39
G1 F600 X188.258 Y148.533 E12.38139
G1 F600 E11.38139
G0 F1750 X188.124 Y148.321
G0 X188.609 Y146.921
G0 X188.123 Y146.449
G0 X188.123 Y146.549
;TYPE:WALL-INNER
G1 F600 E12.38139
G1 X187.638 Y146.921 E12.39959
G1 X187.069 Y146.693 E12.41785
G1 X186.701 Y147.184 E12.43612
G1 X186.092 Y147.118 E12.45437
G1 X185.872 Y147.688 E12.47256
G1 X185.268 Y147.789 E12.4908
G1 X185.208 Y148.398 E12.50903
G1 X184.652 Y148.658 E12.52731
G1 X184.76 Y149.262 E12.54558
G1 X184.296 Y149.662 E12.56383
G1 X184.563 Y150.214 E12.58209
G1 X184.224 Y150.724 E12.60033
G1 X184.629 Y151.182 E12.61854
G1 X184.44 Y151.766 E12.63682
G1 X184.954 Y152.099 E12.65506
G1 X184.929 Y152.71 E12.67327
G1 X185.515 Y152.892 E12.69155
G1 X185.656 Y153.489 E12.70982
G1 X186.27 Y153.506 E12.72811
G1 X186.567 Y154.041 E12.74634
G1 X187.16 Y153.893 E12.76454
G1 X187.592 Y154.328 E12.7828
G1 X188.123 Y154.025 E12.80101
G1 X188.656 Y154.328 E12.81927
G1 X189.086 Y153.893 E12.83749
G1 X189.681 Y154.041 E12.85575
G1 X189.977 Y153.506 E12.87396
G1 X190.59 Y153.489 E12.89222
G1 X190.731 Y152.892 E12.91049
G1 X191.316 Y152.71 E12.92874
G1 X191.292 Y152.099 E12.94695
G1 X191.806 Y151.766 E12.96519
G1 X191.617 Y151.182 E12.98347
G1 X192.021 Y150.725 E13.00164
G1 X191.683 Y150.214 E13.01989
G1 X191.948 Y149.662 E13.03812
G1 X191.486 Y149.262 E13.05633
G1 X191.593 Y148.658 E13.07459
G1 X191.039 Y148.398 E13.09282
G1 X190.979 Y147.789 E13.11105
G1 X190.375 Y147.688 E13.12929
G1 X190.155 Y147.118 E13.14748
G1 X189.545 Y147.184 E13.16576
G1 X189.178 Y146.692 E13.18404
G1 X188.609 Y146.921 E13.20231
G1 X188.123 Y146.549 E13.22053
G0 F1750 X188.123 Y146.449
G0 X187.576 Y141.363
G0 X187.577 Y141.264
G1 F600 X188.134 Y141.279 E13.23713
G1 X189.228 Y141.409 E13.26994
G1 X190.284 Y141.664 E13.3023
G1 X191.307 Y142.044 E13.3348
G1 X192.27 Y142.539 E13.36705
G1 X193.174 Y143.148 E13.39951
G1 X194.001 Y143.861 E13.43203
G1 X194.74 Y144.667 E13.4646
G1 X195.366 Y145.541 E13.49662
G1 X195.899 Y146.507 E13.52948
G1 X196.309 Y147.517 E13.56195
G1 X196.592 Y148.555 E13.59399
G1 X196.754 Y149.639 E13.62663
G1 X196.787 Y150.733 E13.65923
G1 X196.691 Y151.814 E13.69155
G1 X196.467 Y152.878 E13.72394
G1 X196.115 Y153.919 E13.75667
G1 X195.649 Y154.896 E13.78891
G1 X195.067 Y155.818 E13.82138
G1 X194.384 Y156.661 E13.85369
G1 X193.606 Y157.415 E13.88596
G1 X192.727 Y158.086 E13.9189
G1 X191.806 Y158.631 E13.95077
G1 X190.791 Y159.078 E13.9838
G1 X189.757 Y159.393 E14.01599
G1 X188.692 Y159.585 E14.04823
G1 X187.57 Y159.651 E14.0817
G1 X137.154 Y159.649 E15.58326
G1 X136.904 Y159.649 E15.5907
G1 X136.904 Y159.399 E15.59552
G1 X136.905 Y155.957 E15.69804
G1 X136.905 Y155.707 E15.70548
G1 X136.655 Y155.707 E15.7103
G1 X127.291 Y155.707 E15.98919
G1 X127.29 Y159.65 E16.10663
G1 X96.225 Y159.65 E17.03185
G1 X95.105 Y159.585 E17.06526
G1 X94.039 Y159.393 E17.09752
G1 X93.005 Y159.078 E17.12972
G1 X91.99 Y158.631 E17.16275
G1 X91.063 Y158.083 E17.19482
G1 X90.195 Y157.42 E17.22735
G1 X89.417 Y156.665 E17.25964
G1 X88.73 Y155.817 E17.29214
G1 X88.145 Y154.892 E17.32474
G1 X87.681 Y153.919 E17.35685
G1 X87.329 Y152.878 E17.38957
G1 X87.105 Y151.814 E17.42196
G1 X87.009 Y150.733 E17.45428
G1 X87.042 Y149.639 E17.48688
G1 X87.204 Y148.555 E17.51952
G1 X87.487 Y147.517 E17.55157
G1 X87.899 Y146.503 E17.58416
G1 X88.427 Y145.544 E17.61677
G1 X89.056 Y144.667 E17.64891
G1 X89.795 Y143.861 E17.68148
G1 X90.622 Y143.148 E17.714
G1 X91.526 Y142.539 E17.74647
G1 X92.489 Y142.044 E17.77872
G1 X93.512 Y141.664 E17.81122
G1 X94.569 Y141.409 E17.8436
G1 X95.662 Y141.279 E17.87638
G1 X96.22 Y141.263 E17.89301
G1 X127.042 Y141.264 E18.81099
G1 X127.292 Y141.264 E18.81844
G1 X127.292 Y141.514 E18.82326
G1 X127.291 Y144.957 E18.9258
G1 X127.291 Y145.207 E18.93325
G1 X127.541 Y145.207 E18.93806
G1 X136.905 Y145.207 E19.21696
G1 X136.907 Y141.264 E19.33439
G1 X187.577 Y141.264 E20.84352
G0 F1750 X187.576 Y141.363
G0 X179.49 Y149.502
G0 X179.398 Y149.54
G1 F600 X176.084 Y146.227 E20.98308
G1 X166.033 Y156.278 E21.40643
G1 X166.417 Y157.204 E21.43629
G1 X179.398 Y157.204 E21.8229
G1 X179.398 Y149.54 E22.05116
G0 F1750 X179.49 Y149.502
G0 X176.084 Y146.187
G0 X174.239 Y144.654
